X:487
T:Lord Hay
R:Strathspey
B:The Athole Collection
M:C
L:1/8
K:G
F/G/|A>d B/A/G/F/ E<C C>E|A>d B/A/G/F/ A>dA>F|1 GB/G/ Fd/F/ E<C C>E|
A>D B/A/G/F/ A<DD:|2 GB/G/ Fd/F/ E<C C>g|f>d f/e/d/c/ d>DD||
e|f>dA>d e<c c>e|f>dA>d f>dA>F|1 GB/G/ Fd/F/ e<C C>E|A>D B/A/G/F/ A<DD:|2
GB/G/ Fd/F/ E<C C>g|f>d f/e/d/c/ d<DD||

